icon/fa/file-circle-plus.svg

<svg xmlns="http://www.w3.org/2000/svg" viewBox="0 0 576 512"><!--! Font Awesome Free 6.1.2 by @fontawesome - https://fontawesome.com License - https://fontawesome.com/license/free (Icons: CC BY 4.0, Fonts: SIL OFL 1.1, Code: MIT License) Copyright 2022 Fonticons, Inc.--><path d="M0 64C0 28.65 28.65 0 64 0h160v128c0 17.7 14.3 32 32 32h128v38.6c-73.9 20.9-128 88.8-128 169.4 0 59.1 29.1 111.3 73.7 143.3-3.1.4-6.4.7-9.7.7H64c-35.35 0-64-28.7-64-64V64zm256 64V0l128 128H256zm32 240c0-79.5 64.5-144 144-144s144 64.5 144 144-64.5 144-144 144-144-64.5-144-144zm160-64.9c0-7.9-7.2-16-16-16s-16 8.1-16 16v48h-48c-8.8 0-16 8.1-16 16 0 9.7 7.2 16 16 16h48v48c0 9.7 7.2 16 16 16s16-6.3 16-16v-48h48c8.8 0 16-6.3 16-16 0-7.9-7.2-16-16-16h-48v-48z"/></svg>

<svg xmlns="http://www.w3.org/2000/svg" viewBox="0 0 576 512" height="1em" width="1em">
<!--! Font Awesome Free 6.1.2 by @fontawesome - https://fontawesome.com License - https://fontawesome.com/license/free (Icons: CC BY 4.0, Fonts: SIL OFL 1.1, Code: MIT License) Copyright 2022 Fonticons, Inc.-->
  <path d="M0 64C0 28.65 28.65 0 64 0H224V128C224 145.7 238.3 160 256 160H384V198.6C310.1 219.5 256 287.4 256 368C256 427.1 285.1 479.3 329.7 511.3C326.6 511.7 323.3 512 320 512H64C28.65 512 0 483.3 0 448V64zM256 128V0L384 128H256zM288 368C288 288.5 352.5 224 432 224C511.5 224 576 288.5 576 368C576 447.5 511.5 512 432 512C352.5 512 288 447.5 288 368zM448 303.1C448 295.2 440.8 287.1 432 287.1C423.2 287.1 416 295.2 416 303.1V351.1H368C359.2 351.1 352 359.2 352 367.1C352 376.8 359.2 383.1 368 383.1H416V431.1C416 440.8 423.2 447.1 432 447.1C440.8 447.1 448 440.8 448 431.1V383.1H496C504.8 383.1 512 376.8 512 367.1C512 359.2 504.8 351.1 496 351.1H448V303.1z"/>
</svg>
